X:535
T:The Wild Irishman
R:reel
Z:id:hn-reel-246
M:C|
K:D
F2AF DEFD|EA,~A,2 EA,~A,2|F2AF DEFA|1 (3Bcd ce dBAG:|2 (3Bcd ec d3e||
|:fddc dfaf|edcd efge|1 fddc dfaf|gfeg fdde:|2 dfaf g2ag|faeg fd d2||
